htdocs/bitrix/js/ui/icons/service/images/ui-service-light-apple.svg

<svg xmlns="http://www.w3.org/2000/svg" width="42" height="42" viewBox="0 0 42 42"><path fill="#80868E" fill-rule="nonzero" d="M31.4476087,25.3641304 C31.0747826,26.2254348 30.6334783,27.0182609 30.1221739,27.7471739 C29.4252174,28.7408696 28.8545652,29.4286957 28.4147826,29.8106522 C27.7330435,30.4376087 27.0026087,30.7586957 26.2204348,30.7769565 C25.658913,30.7769565 24.9817391,30.6171739 24.1934783,30.2930435 C23.4026304,29.9704348 22.6758478,29.8106522 22.0113043,29.8106522 C21.3143478,29.8106522 20.5668696,29.9704348 19.7673478,30.2930435 C18.9666087,30.6171739 18.3215435,30.786087 17.8283478,30.8028261 C17.0782826,30.8347826 16.3306522,30.5045652 15.5843913,29.8106522 C15.108087,29.3952174 14.5123261,28.6830435 13.7986304,27.6741304 C13.0328913,26.5967391 12.4033478,25.3473913 11.9101522,23.9230435 C11.3819565,22.3845652 11.1171739,20.8947826 11.1171739,19.4524783 C11.1171739,17.8003261 11.4741739,16.3753696 12.1892391,15.1812609 C12.7512174,14.2221087 13.4988478,13.4655 14.4345652,12.9100652 C15.3702826,12.3546304 16.3813261,12.071587 17.4701304,12.0534783 C18.0658913,12.0534783 18.8471522,12.2377609 19.8180217,12.5999348 C20.7861522,12.9633261 21.4077826,13.1476087 21.6803261,13.1476087 C21.884087,13.1476087 22.5746522,12.9321304 23.7453261,12.5025435 C24.8523913,12.1041522 25.7867391,11.9391957 26.5521739,12.0041739 C28.6263043,12.1715652 30.1845652,12.9891957 31.2208696,14.4622391 C29.3658696,15.5861957 28.4482609,17.1604348 28.4665217,19.1799348 C28.4832609,20.7529565 29.053913,22.0619565 30.1754348,23.1013043 C30.6836957,23.5836957 31.2513043,23.9565217 31.8828261,24.2213043 C31.7458696,24.6184783 31.6013043,24.998913 31.4476087,25.3641304 Z M26.6906522,6.64521739 C26.6906522,7.87814565 26.2402174,9.02932609 25.3423913,10.0948478 C24.258913,11.3615435 22.9483913,12.0935 21.5272391,11.978 C21.5091304,11.830087 21.4986304,11.674413 21.4986304,11.5108261 C21.4986304,10.3272174 22.0138913,9.06052174 22.928913,8.02482609 C23.3857391,7.50043478 23.9667391,7.06441087 24.6713043,6.71658696 C25.3743478,6.37395217 26.0393478,6.18446522 26.6647826,6.15202174 C26.6830435,6.3168413 26.6906522,6.48167609 26.6906522,6.64520217 L26.6906522,6.64521739 Z"/></svg>

<svg xmlns="http://www.w3.org/2000/svg" width="42" height="42" viewBox="0 0 42 42"><path fill="#80868E" d="M31.448 25.364a13.403 13.403 0 0 1-1.326 2.383c-.697.994-1.267 1.682-1.707 2.064-.682.627-1.412.948-2.195.966-.561 0-1.238-.16-2.027-.484-.79-.323-1.517-.482-2.182-.482-.697 0-1.444.16-2.244.482-.8.324-1.445.493-1.939.51-.75.032-1.497-.298-2.244-.992-.476-.416-1.072-1.128-1.785-2.137-.766-1.077-1.396-2.327-1.889-3.751-.528-1.538-.793-3.028-.793-4.47 0-1.653.357-3.078 1.072-4.272a6.289 6.289 0 0 1 2.246-2.27 6.04 6.04 0 0 1 3.035-.858c.596 0 1.377.185 2.348.547.968.363 1.59.548 1.862.548.204 0 .895-.216 2.065-.645 1.107-.399 2.042-.564 2.807-.499 2.074.168 3.633.985 4.669 2.458-1.855 1.124-2.773 2.698-2.754 4.718.016 1.573.587 2.882 1.708 3.921a5.616 5.616 0 0 0 1.708 1.12c-.137.397-.282.778-.435 1.143zM26.69 6.645c0 1.233-.45 2.384-1.349 3.45-1.083 1.267-2.394 1.998-3.815 1.883a3.838 3.838 0 0 1-.028-.467c0-1.184.515-2.45 1.43-3.486.457-.525 1.038-.96 1.742-1.308.703-.343 1.368-.533 1.994-.565.018.165.026.33.026.493z"/></svg>
